X: 700
T: After the Sun Goes Down   #2
R: reel
%S: s:2 b:14(6+4+4)
B: Francis O'Neill: "The Dance Music of Ireland" (1907) no. 700
Z: Frank Nordberg - http://www.musicaviva.com
F: http://www.musicaviva.com/abc/tunes/ireland/oneill-1001/0700/oneill-1001-0700-1.abc
%m: ~n2 = o/4n/m/4n	% No longer needed
M: C|
L: 1/8
K: Em
"^A"\
|: G2(BG) DGBG | egfa gedB |\
[1 G2(BG) DGBG | AcBA GE-~E2 :|\
[2 (3efg (3fga gedB | AcBA GEE2 |]
"^B"\
[| gfeg fedB | gfga bgef | gfeg fedB | AcBA GE-~E2 ||
|| gfeg fedB | gfga beeg | bgaf gedB | AcBA GEE2 |]
